!!!!SEGMENT: pl-sa--480-a-viii-120--002_anonim--witaj-krynico.krn
!!!cenid: 17xx:1712
!!!COM: Anonim
!!!COM-rismID:
!!!CDT:
!!!CNT:
!!!OTL: Witaj krynico
!!!PDT:
!!!AGN: Sacred
!!!SMS-siglum: PL-SA
!!!SMS-shelfmark: 480/A VIII 120
!!!SMS-shelfwork: 002 W
!!!SMS-variant:
!!!SMS-altvar:
!!!NIFC-rismSourceID: 1001041376
!!!NIFC-islandoraID:
!!!URL-pdf-islandora:
!!!URL-scan: https://bc.bdsandomierz.pl/dlibra/publication/1206/edition/1165/content @EN{Scan on Cyfrowa Biblioteka Diecezjalna w Sandomierzu} @PL{Skany w portalu Cyfrowa Biblioteka Diecezjalna w Sandomierzu}
!!!ONB-nifc: UWAGA: utwory w zbiorze: 1. Quem terra pontus sidera, 2. Witaj krynico, 3. Zawitaj córko, 4. Zdrowaś Maryja śpiewajmy
!!!OMD: Adagio
!!!AIN: 1 organ 1 soprn 2 violn
!!!key: B-
**kern	**kern	**kern	**kern	**text
*part4	*part3	*part2	*part1	*part1
*staff4	*staff3	*staff2	*staff1	*staff1
*I"Basſo	*I"Violino Secundo_	*I"Violino Primo	*I"Canto Primo.	*
*I'bc	*I'vl 2	*I'vl 1	*I'S 1	*
*Iorgan	*Ivioln	*Ivioln	*Isoprn	*
*ICklav	*ICstr	*ICstr	*ICvox	*
*clefF4	*clefG2	*clefG2	*clefC1	*
*k[b-e-]	*k[b-e-]	*k[b-e-]	*k[b-e-]	*
*B-:	*B-:	*B-:	*B-:	*
*M3/4	*M3/4	*M3/4	*M3/4	*
*>[A,B,B]	*>[A,B,B]	*>[A,B,B]	*>[A,B,B]	*
*>A	*>A	*>A	*>A	*
!	!	!LO:TUP:a:problem=klamra łukowa	!	!
!	!LO:TX:b:i:t=Witay Krynico	!LO:TX:b:i:t=Witay Krynico-	!LO:TUP:a:problem=klamra łukowa	!
!LO:TX:t=P:problem=brak partii	!LO:TX:a:i:t=adagio	!LO:TX:a:i:t=Adagio	!LO:TX:a:i:t=adagio	!
4ryy	4r	12f/L	12f/L	Wi-
.	.	12g/	12g/	.
.	.	12a/J	12a/J	.
=1	=1	=1	=1	=1
2.ryy	4d/	4b-/	4b-\	-tay
.	4d/	4b-/	4b-\	Kry-
.	16d/LL	16b-/LL	(16b-\LL	-ni-
.	16f/J	16cc/J	16cc\J)	.
.	8b-/J	8dd/J	8dd|>\J	-co
=2	=2	=2	=2	=2
2.ryy	8a/L	8cc\L	8cc\	do-
.	8g/J	8b-\J	8b-\	-bra
.	8f/L	8a/L	8a\	.
.	8en/J	8g/J	8g\	wsze-
.	8f/L	8a/L	16a\LL	.
.	.	.	(16g\	.
.	8g/J	8b-/J	16a\	-la-
.	.	.	16b-\JJ)	.
=3	=3	=3	=3	=3
2.ryy	8a/L	8cc/L	8cc\	-kie-
.	8f/J	8a/J	8a\	.
.	2A/	2f/	2f/	-go
=4	=4	=4	=4	=4
2.ryy	4a/	4cc\	4cc\	Nay-
.	4cc/	4ee-\	4ee-\	-mil-
.	4cc/	4ee-\	4ee-\	-sza
=5	=5	=5	=5	=5
2.ryy	4.cc\	4.ee-\	4.ee-\	Ra-
.	8b-\	8dd\	8dd\	.
!	!LO:TUP:a:problem=klamra łukowa	!LO:TUP:a:problem=klamra łukowa	!LO:TUP:a:problem=klamra łukowa	!
.	12a\L	12cc\L	12cc\L	-no
.	12b-\	12dd\	12dd\	.
.	12cc\J	12ee-\J	12ee-\J	.
!	!	!LO:LB:g=original	!LO:LB:g=original	!
=6	=6	=6	=6	=6
2.ryy	8f/L	8dd\L	8dd\	Ser-
!	!LO:TX:b:i:t=e	!	!	!
.	8e-/J	8cc\J	8cc\	-ca
.	4d/	4b-/	4b-\	Pa-
.	4c/	4a/	4a\	-na
=7	=7	=7	=7	=7
*	*	*	*2\right	*
!	!	!	!LO:SIC:v:s=2b-\	!
2.ryy	2d/	2b-/	2a\	me-
!	!	!	!LO:SIC:v:s=4b-\	!
.	4r	4r	4a\	-go
=8!|:	=8!|:	=8!|:	=8!|:	=8!|:
*>B	*>B	*>B	*>B	*
2.ryy	4a/	4cc\	4cc\	Roz-
.	4a/	4cc\	4cc\	-pal
!	!	!LO:TX:a:t=d	!	!
.	4b-/	4dd\	4dd\	o-
=9	=9	=9	=9	=9
2.ryy	4.b-/	4.dd\	4.dd\	-zię-
.	8a/	8cc\	8cc\	.
.	4f/	4a/	4a\	-błe
=10	=10	=10	=10	=10
2.ryy	8f/L	8a/L	8a/L	me
.	8en/J	8g/J	8g/J	ser-
.	8f/L	8a/L	8a/L	-ce
.	8g/J	8b-/J	8b-/J	.
.	8a/L	8cc\L	8cc\L	mi-
.	8g/J	8b-\J	8b-\J	.
=11	=11	=11	=11	=11
2.ryy	4f/	4a/	4a/	-ło-
.	4c/	4g/	4g/	.
.	4A/	4f/	4f/	-ścią
!	!LO:LB:g=original	!	!	!
=12	=12	=12	=12	=12
2.ryy	4a\	4cc\	4cc\	I
.	4cc\	4ee-\	4ee-\	na-
.	4cc\	4ee-\	4ee-\	-peł-
!	!	!LO:LB:g=original	!LO:LB:g=original	!
=13	=13	=13	=13	=13
2.ryy	4.cc\	4.ee-\	4.ee-\	-niyi
.	8b-\	8dd\	8dd\	.
!	!LO:TUP:b:problem=klamra łukowa	!LO:TUP:a:problem=klamra łukowa	!	!
.	12a/L	12cc\L	12cc\L	ie
.	12b-/	12dd\	12dd\	.
.	12cc/J	12ee-\J	12ee-\J	.
=14	=14	=14	=14	=14
2.ryy	8f/L	8dd\L	8dd\L	Nie-
.	8e-/J	8cc\J	8cc\J	-bie-
.	4d/	4b-/	4b-\	-ską
.	4c/	4a/	4a\	Świa-
=15	=15	=15	=15	=15
2.ryy	2d/	2b-/	2b-\	-tło-
.	4d/	4b-/	4b-\	-ścią
=:|!	=:|!	=:|!	=:|!	=:|!
*-	*-	*-	*-	*-
!!!system-decoration: s1[(s2,s3)]s4
!!!RDF**kern: < = below
!!!RDF**kern: > = above
!!!RDF**kern: | = vertical stroke
!!!ENC: Andrzej Borzym
!!!END: 2021-01-26
!!!ENC: Marta Chmielewska
!!!END: 2022-01-11
